MonoIcons/scalable/status/weather-severe-alert-symbolic.svg

<?xml version="1.0" encoding="UTF-8"?>
<svg height="16px" viewBox="0 0 16 16" width="16px" xmlns="http://www.w3.org/2000/svg">
    <path d="m 9.5 2 c -1.285156 0 -2.328125 0.972656 -2.46875 2.21875 c -0.328125 -0.121094 -0.664062 -0.21875 -1.03125 -0.21875 c -1.65625 0 -3 1.34375 -3 3 c 0 0.097656 0.023438 0.183594 0.03125 0.28125 c -0.300781 -0.179688 -0.65625 -0.28125 -1.03125 -0.28125 c -1.105469 0 -2 0.894531 -2 2 s 0.894531 2 2 2 h 5 v -2.125 c 0 -1.011719 0.863281 -1.875 1.875 -1.875 h 5.0625 c -0.210938 -0.984375 -1 -1.757812 -2 -1.9375 c 0.042969 -0.179688 0.0625 -0.367188 0.0625 -0.5625 c 0 -1.378906 -1.121094 -2.5 -2.5 -2.5 z m 0 0" fill="#2e3436"/>
    <path class="warning" d="m 8.875 8 c -0.492188 0 -0.875 0.382812 -0.875 0.875 v 6.25 c 0 0.492188 0.382812 0.875 0.875 0.875 h 6.25 c 0.492188 0 0.875 -0.382812 0.875 -0.875 v -6.25 c 0 -0.492188 -0.382812 -0.875 -0.875 -0.875 z m 2.125 1 h 2 v 2.5 s 0 0.5 -0.5 0.5 h -1 c -0.5 0 -0.5 -0.5 -0.5 -0.5 z m 0.5 4 h 1 c 0.277344 0 0.5 0.222656 0.5 0.5 v 1 c 0 0.277344 -0.222656 0.5 -0.5 0.5 h -1 c -0.277344 0 -0.5 -0.222656 -0.5 -0.5 v -1 c 0 -0.277344 0.222656 -0.5 0.5 -0.5 z m 0 0" fill="#ff7800"/>
</svg>

<svg width="16" height="16" viewBox="0 0 16 16" fill="none" xmlns="http://www.w3.org/2000/svg">
<g clip-path="url(#clip0_231_1197)">
<path d="M9.5 2C8.21484 2 7.17188 2.97266 7.03125 4.21875C6.70313 4.09766 6.36719 4 6 4C4.34375 4 3 5.34375 3 7C3 7.09766 3.02344 7.18359 3.03125 7.28125C2.73047 7.10156 2.375 7 2 7C0.894531 7 0 7.89453 0 9C0 10.1055 0.894531 11 2 11H7V8.875C7 7.86328 7.86328 7 8.875 7H13.9375C13.7266 6.01563 12.9375 5.24219 11.9375 5.0625C11.9805 4.88281 12 4.69531 12 4.5C12 3.12109 10.8789 2 9.5 2Z" fill="#2E3436"/>
<path d="M8.875 8C8.38281 8 8 8.38281 8 8.875V15.125C8 15.6172 8.38281 16 8.875 16H15.125C15.6172 16 16 15.6172 16 15.125V8.875C16 8.38281 15.6172 8 15.125 8H8.875ZM11 9H13V11.5C13 11.5 13 12 12.5 12H11.5C11 12 11 11.5 11 11.5V9ZM11.5 13H12.5C12.7773 13 13 13.2227 13 13.5V14.5C13 14.7773 12.7773 15 12.5 15H11.5C11.2227 15 11 14.7773 11 14.5V13.5C11 13.2227 11.2227 13 11.5 13Z" fill="#00FF00"/>
</g>
<defs>
<clipPath id="clip0_231_1197">
<rect width="16" height="16" fill="white"/>
</clipPath>
</defs>
</svg>
